azure-patterns/svg-visual-studio-alt.svg

<svg xmlns="http://www.w3.org/2000/svg" viewBox="0 0 133 133">
                                
                            
  <path d="M 99.75 0L 99.75 114.237L 42.1657 105.688L 42.0541 105.486L 41.7905 105.633L 0 99.4222L 34.846 111.15L 34.8887 111.228L 34.96 111.188L 99.75 133L 133 119.177L 133 13.8344L 99.75 0ZM 35.0621 63.8875L 65.1273 93.6225L 83.125 85.975L 83.125 27.6474L 65.1273 19.9928L 35.0621 49.7396L 16.9599 36.1L 9.5 38.589L 9.5 75.0286L 16.9599 77.5247L 35.0621 63.8875ZM 64.125 40.964L 64.125 72.6513L 43.1063 56.8076L 64.125 40.964ZM 16.625 45.7948L 27.7566 56.8076L 16.625 67.8229L 16.625 45.7948Z"></path>
</svg>

<svg xmlns="http://www.w3.org/2000/svg" viewBox="0 0 133 133"><path d="M99.75 0v114.237l-57.584-8.549-.112-.202-.264.147L0 99.423l34.846 11.727.043.078.071-.04L99.75 133 133 119.177V13.834L99.75 0zM35.062 63.888l30.065 29.735 17.998-7.648V27.647l-17.998-7.654L35.062 49.74 16.96 36.1 9.5 38.589v36.44l7.46 2.496 18.102-13.638zm29.063-22.924v31.687L43.106 56.808l21.019-15.844zm-47.5 4.83l11.132 11.014-11.132 11.015V45.795z"/></svg>
